X:1
T:Un doux nenni
T:Un doux nenni
T:Thomas Crecquillon
C:Thomas Crecquillon
%%score [ 1 [ 2 3 ] 4 ]
L:1/8
Q:1/4=120
M:2/2
K:F
V:1 treble nm="Soprano" snm="S"
V:2 treble-8 nm="Tenor 1" snm="T 1"
V:3 treble-8 nm="Tenor 2" snm="T 2"
V:4 bass nm="Bass" snm="B"
V:1
 D8 | E4 G4 | F4 z2 F2 | G2 A2 B2 A2 | G8 | F6 F2 | G2 G2 E4 | D8 | z2 F2 F3 G | A2 B4 A2- | %10
w: Un|doux nen-|ny, a-|vec un doux soub-|ri-|re, est|tant hon- nes-|te,|il le vous|faut ap- pren-|
 AG G4 F2 | G4 z2 D2 | E4 G4 | F4 z2 F2 | G2 A2 B2 A2 | G8 | F6 F2 | G4 E4 | D8 | z2 F2 F3 G | %20
w: |dre, quant|est d'ou-|y si|ve- niez à le|di-|re, d'a-|voir trop|dit|je vous vou-|
 A2 B4 A2- | AG G4 F2 | G4 z2 B2 | A2 G2 F2 B2 | B2 A2 G2 G2 | F4 E2 D2- | DC C2 D4- | D4 z4 | %28
w: drois re- pren-||dre, non|que je suis en-|vi- eux d'en- tre-|pren- dre, d'en|_ tre pren- dre,|_|
 F4 G2 A2 | D2 B2 B2 A2 | G2 F2 E2 D2- |"^-natural" DC/B,/ ^C2 D4- | D4 D4 | E4 G4 | F4 z2 F2 | %35
w: d'a- voir le|fruit, dont le de-|sir me point, me|_ _ _ _ point,|_ mais|je vou-|drois qu'en|
 G2 A2 B2 A2 | G8 | F6 F2 | G4 E4 | D4 z2 A2 | z2 F2 F3 G | A2 B4 A2- | A2 G4 F2 | G4 z2 G2 | %44
w: me lais- sant pren-|dre,|vous me|di- e-|riez, non,|non, non, _|_ vous ne|_ l'au- riez|point, vous|
 G4 E4 | D4 z2 A2 | z2 F2 F3 G | A2 B4 A2- | A2 G4 ^F2 | G8 |] %50
w: me die-|riez, non,|non, non, _|_ vous ne|_ l'au- riez|point.|
V:2
 B8 | c4 d4 | d6 d2 | e2 f2 f2 f2 | ed d4 c2 | d4 z2 d2 | d2 d2 c4 | A2 A2 A3 B | c2 d4 d2 | %9
w: Un|doux nen-|ny, a-|vec un doux soub-|ri- * * *|re, est|tant hon- nes-|te, il le _|_ vous faut|
 c2 Bc de f2 | _e2 c2 d4 | B4 z2 B2 | c4 d4 | d6 d2 | e2 f4 f2 | ed d4 c2 | d4 z2 d2- | d2 d2 c4 | %18
w: ap- pren- * * * *||dre, quant|est d'ou-|y si|ve- niez à|le- * di- *|re, d'a-|* voir trop|
 A2 A2 A3 B | c2 d4 d2 | c2 Bc de f2 | _e2 c2 d4 | z2 d2 c2 d2 | f2 d2 d4- | d2 d2 B2 G2 | %25
w: dit je vous _|_ vou- drois|re- pren- * * * *|* * dre,|non que je|suis en- vi-|* eux d'en- tre-|
 d2 c4 B2 | A4 z2 A2- | A2 B2 c4 | d4 c4 | B3 c de f2 | e2 d2 c2 BA | B2 AG A4 | B6 B2 | c4 d4 | %34
w: pren- * *|dre, d'a-|* voir le|fruit, dont|le _ _ _ _|de- sir me _ _|_ _ _ _|point, mais|je vou-|
 d6 d2 | e2 f4 f2 | ed d4 c2 | d4 z2 d2 | d4 c4 | A2 A2 A3 B | c2 d2 d4 | c2 Bc de f2 | %42
w: drois qu'en|me lais- sant|pren- * * *|dre, vous|me di-|riez, non, vous _|_ ne l'au-|rez point, _ _ _ _|
 _e2 c2 d2 d2 | B8 | z2 G2 c2 c2 | A2 A2 A3 B | c2 d2 d4 | c2 Bc de f2 | _e2 c2 d2 d2 | =B8 |] %50
w: vous ne l'au- rez|point,|vous me di-|riez, non, vous _|_ ne l'au-|rez point. _ _ _ _|vous ne l'au- rez|point.|
V:3
 G8 | G4 B4 | A2 F2 G2 A2 | B2 c2 d2 c2 | B2 B4 AG | A4 A2 A2 | B2 B2 G2 G2- | G2 FE F2 F2 | %8
w: Un|doux nen-|ny, a- vec un|doux soub- ri- re,|soub- ri- * *|* re, est|tant hon- nes- *|* * * te, il|
 F3 G A2 B2 | A2 G4 F2 | G2 G2 A4 | G4 G4- | G2 G2 B4 | A2 F2 G2 A2 | B2 c2 d2 c2 | B6 AG | %16
w: le _ _ vous|faut ap- pren-|dre, ap- pren-|dre, quant|_ est d'oo-|y si ve- niez|à le di- re,|di- * *|
 A4 A2 A2 | G4 E4 | G2 FE F2 F2 | F3 G A2 B2 | A2 G4 F2 | G2 G2 A4 | G4 z4 | z2 B2 A2 G2 | %24
w: * re, d'a-|voir trop|dit _ _ _ je|vous _ _ vou-|drois re- pren-|dre, re- pren-|dre,|non que je|
 F4 z2 B2 | B2 A2 G2 F2 | E4 D4 | z2 F2 G2 A2 | D2 B2 B2 A2 | B2 G2 F3 E | C2 F2 G2 A2- | %31
w: suis en-|vi- eux d'en- tre-|pren- dre,|d'a- voir le|fruit, dont le de-|sir me point, _|_ dont le de-|
"^#" AG G4 F2 | G4 G4- | G2 G2 B4 | A2 F2 G2 A2 | B2 c2 d2 c2 | B6 AG | A4 A2 A2 | B4 G4 | %39
w: * * sir me|point, mais|_ je vou-|drois qu'en me lais-|sant pren- dre, pren-||* dre, vous|me di-|
 G2 FE F2 F2 | F3 G A2 B2 | A2 G4 F2 | G4 A4 | G2 D2 G4 | E2 EF GA G2- | G2 FE F2 F2 | F3 G A2 B2 | %47
w: riez, _ _ _ non,|vous _ _ ne|l'au- rez point,|l'au- rez|point, vois me|di- riez, _ _ _ _|_ _ _ _ non,|vous _ _ ne|
 A2 G4 F2 | G4 A4 | G8 |] %50
w: l'au- rez point,|l'au- rez|point.|
V:4
 G,,8 | C,4 G,,4 | D,4 z2 D,2 | G,2 F,2 B,2 F,2 | G,F,_E,D, E,4 | D,6 D,2 |"^#" G,2 G,2 C,4 | D,8 | %8
w: Un|doux nen-|ny, a-|vec un doux soub-|ri- * * * *|re, est|tant hon- nes-|te|
 z2 D,2 D,3 E, | F,2 G,2 D,4 | C,D, _E,2 D,4 | G,,6 G,,2 | C,4 G,,4 | D,4 z2 D,2 | %14
w: il le _|_ vous faut|ap- * * pren-|dre, quant|est d'ou-|y si|
 G,2 F,2 B,2 F,2 | G,F,_E,D, E,4 | D,6 D,2 |"^#" G,4 C,4 | D,8 | z2 D,2 D,3 E, | F,2 G,2 D,4 | %21
w: ve- niez à le|di- * * * *|re, d'a-|voir trop|dit|je vous _|_ vou- drois|
 C,2 _E,2 D,4 | z2 B,2 A,2 G,2 | F,2 G,2 D,2 G,,2 | D,2 D,2 _E,3 D, | B,,2 F,2 C,2 D,2 | %26
w: re- pren- dre,|non que je|suis en- vi- eux|d'en- tre- pren- *|* dre, d'en- tre|
 A,,2 A,,2 z4 | D,4 E,2 F,2 | B,,2 D,2 E,2 F,2 | G,2 _E,2 D,4 | z2 D,2 E,2 F,2 | G,2 _E,2 D,4 | %32
w: pren- dre,|d'a- voir le|fruit dont le de-|sir me point,|dont le de-|sir _ me|
 G,,6 G,,2 | C,4 G,,4 | D,4 z2 D,2 | G,2 F,2 B,2 F,2 | G,F,_E,D, E,4 |"^#" D,6 D,2 | G,4 C,4 | %39
w: point, mais|je vou-|drois qu'en|me lais- sant pren-||dre, vous|me di-|
 D,8 | z2 D,2 D,3 E, | F,2 G,2 D,4 | C,2 _E,2 D,4 | G,,4 z2 G,,2 | C,4 C,4 | D,8 | z2 D,2 D,3 E, | %47
w: riez,|non, vous _|_ ne l'au-|* * rez|point, vou|me di-|riez,|non, vous, _|
 F,2 G,2 D,4 | C,D, _E,2 D,4 | G,,8 |] %50
w: _ ne l'au-|* * * rez|point.|

